svgs/thin/check-to-slot.svg

<svg xmlns="http://www.w3.org/2000/svg" viewBox="0 0 576 512"><!--! Font Awesome Pro 6.0.0-alpha3 by @fontawesome - https://fontawesome.com License - https://fontawesome.com/license (Commercial License) --><path d="M56 416c0 4.406 3.594 8 8 8h448c4.406 0 8-3.594 8-8s-3.594-8-8-8H64C59.59 408 56 411.6 56 416zM268.4 288c.25 0 .5313 0 .7813-.0313C271.5 287.8 273.5 286.6 274.8 284.8l107.6-144c2.656-3.531 1.906-8.531-1.625-11.19c-3.531-2.594-8.531-1.875-11.19 1.625L267.3 268.2L205.3 212.3C202.1 209.4 197 209.7 194.1 212.9C191.1 216.2 191.4 221.3 194.7 224.2l68.44 61.72C264.6 287.3 266.5 288 268.4 288zM536 352h-16C515.6 352 512 355.6 512 360s3.594 8 8 8h16c13.22 0 24 10.78 24 24v48c0 13.22-10.78 24-24 24H40c-13.22 0-24-10.78-24-24v-48c0-13.22 10.78-24 24-24h16C60.41 368 64 364.4 64 360S60.41 352 56 352h-16C17.94 352 0 369.9 0 392v48C0 462.1 17.94 480 40 480h496c22.06 0 40-17.94 40-40v-48C576 369.9 558.1 352 536 352zM104 368c4.406 0 8-3.594 8-8v-288c0-13.22 10.78-24 24-24h304c13.22 0 24 10.78 24 24v288c0 4.406 3.594 8 8 8S480 364.4 480 360v-288C480 49.94 462.1 32 440 32h-304C113.9 32 96 49.94 96 72v288C96 364.4 99.59 368 104 368z"/></svg>

<svg xmlns="http://www.w3.org/2000/svg" viewBox="0 0 576 512"><!-- Font Awesome Pro 6.0.0-alpha2 by @fontawesome - https://fontawesome.com License - https://fontawesome.com/license (Commercial License) --><path d="M56 416C56 420.406 59.594 424 64 424H512C516.406 424 520 420.406 520 416S516.406 408 512 408H64C59.594 408 56 411.594 56 416ZM268.438 288C268.688 288 268.969 288 269.219 287.969C271.469 287.75 273.5 286.594 274.844 284.781L382.406 140.781C385.062 137.25 384.312 132.25 380.781 129.594C377.25 127 372.25 127.719 369.594 131.219L267.281 268.188L205.344 212.344C202.094 209.406 197 209.688 194.062 212.938C191.094 216.219 191.375 221.25 194.656 224.219L263.094 285.937C264.562 287.281 266.469 288 268.438 288ZM536 352H520C515.594 352 512 355.594 512 360S515.594 368 520 368H536C549.219 368 560 378.781 560 392V440C560 453.219 549.219 464 536 464H40C26.781 464 16 453.219 16 440V392C16 378.781 26.781 368 40 368H56C60.406 368 64 364.406 64 360S60.406 352 56 352H40C17.938 352 0 369.938 0 392V440C0 462.062 17.938 480 40 480H536C558.062 480 576 462.062 576 440V392C576 369.938 558.062 352 536 352ZM104 368C108.406 368 112 364.406 112 360V72C112 58.781 122.781 48 136 48H440C453.219 48 464 58.781 464 72V360C464 364.406 467.594 368 472 368S480 364.406 480 360V72C480 49.938 462.062 32 440 32H136C113.938 32 96 49.938 96 72V360C96 364.406 99.594 368 104 368Z"/></svg>
